X:83
T:Flickan st{\aa}r p{\aa} golvet
R:sl-polska
A:\"Osterg\"otland
B:SvL \"Ogl 498, fr{\aa}n Norra Vi. 
Z:id:hn-sp-83
Z:transponerad fr{\aa}n Dm
M:3/4
L:1/16
K:Am
c2c2 B2B2 A2A2 | c2c2 d2d2 e4 :| c2c2 c2e2 g2f2 |
d2f2 a2g2 e4 | c2c2 B2B2 A2A2 | cBA^G ^G2A2 A4 ||
"jfr Bagge 41:"
c2(cd) B2(Bc) A2A2 | e2e2 {f}d2d2 e4 | c2(cd) B2(Bc) A2A2 |
e2(ef) d2(df) e4 :||: e3c c3e g2f2 | d3f a2g2 e4 |
c2(cd) B2(Bc) A2(AB) | (cB)A^G A2E2 C2E2 | e3c c3e g2f2 |
d3f a2g2 e4 | c2(cd) B2(Bc) A2(AB) | (cB)A^G A4 A,2 z2 :|
W:Text fr{\aa}n SvL:
W:1. Flickan st{\aa}r p{\aa} golvet som en fager ros.
W:Denna vackra gossen vill hon sova hos. Trall...
W:2. Flickan sad' till gossen: Vill du bli min v\"an?
W:Ja g\"arna om det vore uti denna kv\"all. Trall...
W:3. Vill du bli min v\"an, s{\aa} r\"ack dig hit min hand.
W:Och h{\aa}ller du mig k\"ar, s{\aa} tar du mig i famn. Trall...
W:4. Mitt upp p{\aa} golvet b\"addas upp en s\"ang.
W:D\"ar jag skulle vila med min lilla v\"an. Trall...
W:Text fr{\aa}n Folk och Rackare:
W:1. Flickan st{\aa}r p{\aa} golvet fager som en ros.
W:Denna vackra gosse vill hon sova hos.
W:Tv{\aa} och tv{\aa} i dansen, en och en g{\aa}r fri
W:Mister du balansen d{\aa} \"ar allt f\"orbi
W:2. Gossen st{\aa}r p{\aa} golvet reslig som ett tr\"ad
W:Denna vackra flicka skall jag sova med.
W:Tv{\aa} och tv{\aa} i dansen, en och en sl{\aa}s ut
W:Mister du balansen d{\aa} \"ar allting slut.
W:
W:
W:
W:
W:
W:
W:
W:
W:
W:

